assets/esbuild/mono.svg

<svg viewBox="0 0 24 24" xmlns="http://www.w3.org/2000/svg"><path d="m12 0a12 12 0 0 0 -12 12 12 12 0 0 0 12 12 12 12 0 0 0 12-12 12 12 0 0 0 -12-12zm-5.282 5.282 6.718 6.718-6.718 6.718-2.036-2.036 4.682-4.682-4.682-4.682zm7.2 0 6.718 6.718-6.718 6.718-2.036-2.036 4.682-4.682-4.682-4.682z"/></svg>

<svg xmlns="http://www.w3.org/2000/svg" viewBox="0 0 24 24"><path d="M12 0A12 12 0 0 0 0 12a12 12 0 0 0 12 12 12 12 0 0 0 12-12A12 12 0 0 0 12 0M6.718 5.282 13.436 12l-6.718 6.718-2.036-2.036L9.364 12 4.682 7.318zm7.2 0L20.636 12l-6.718 6.718-2.036-2.036L16.564 12l-4.682-4.682z"/></svg>
